X: 29853
T: O'Driscoll's Favourite
R: reel
M: 4/4
K: Amajor
(3AAA cAEA ce|fefg afec|(3AAA cA EAcA|BcBA GEFG|
(3AAA cA EAce|fefg afec|Acea fecA|BAGB A2E2|
(3AAA cAEA ce|fefg afec|(3AAA cA EAcA|BcBA GEFG|
(3AAA cA EAce|fefg afec|Acea fecA|BAGB A2(3Ace|
a2(3Ace g2(3Ace|f2cf eAce|a2ea gbeg|fbba gbeg|
a2fa gbeg|agaf edcA|Bcde fgaf|edcB A2(3Ace|
a2(3Ace g2(3Ace|g2cf eAce|a2ea gbeg|fbba gbeg|
a2fa gbeg|agaf edcA|Bcde fgaf|edcB A2E2|

